X:1
T:Unconditional Generated Sample
M:4/4
L:1/8
Q:1/4=120
K:C

z8| \
z8| \
z8| \
z8|
z8| \
z8| \
z8| \
z8|
z8| \
z8| \
z8| \
z8|
z8| \
z8| \
z8| \
z8|
z8| \
z8| \
z8| \
z8|
z8| \
z8| \
z8| \
z8|
z8| \
z8| \
z8| \
z8|
z8| \
z8| \
z8| \
z8|
z8| \
z8| \
[E^CB,A,E,A,,][ECB,A,E,A,,] [ECB,A,E,A,,][ECB,A,E,A,,] [ECB,A,E,A,,][ECB,A,E,A,,] [ECB,A,E,A,,][ECB,A,E,A,,]| \
[E^CB,^F,B,,][ECB,F,B,,] [ECB,F,B,,][ECB,F,B,,] [ECB,F,B,,][ECB,F,B,,] [ECB,F,B,,][ECB,F,B,,]|
[^FDA,D,][FDA,D,] [FDA,D,][FDA,D,] [FDA,D,][FDA,D,] [FDA,D,][FDA,D,]| \
[^FDA,D,][FDA,D,] [FDA,D,][FDA,D,] [FDA,D,][FDA,D,] [FDA,D,][FDA,D,]| \
[E^CB,A,E,A,,][ECB,A,E,A,,] [ECB,A,E,A,,][ECB,A,E,A,,] [ECB,A,E,A,,][ECB,A,E,A,,] [ECB,A,E,A,,][ECB,A,E,A,,]| \
[E^CB,^F,B,,][ECB,F,B,,] [ECB,F,B,,][ECB,F,B,,] [ECB,F,B,,][ECB,F,B,,] [ECB,F,B,,][ECB,F,B,,]|
[^FDA,D,][FDA,D,] [FDA,D,][FDA,D,] [FDA,D,][FDA,D,] [FDA,D,][FDA,D,]| \
[^FDA,D,][FDA,D,] [FDA,D,][FDA,D,] [FDA,D,][FDA,D,] [FDA,D,][FDA,D,]| \
[E^CB,A,E,A,,][ECB,A,E,A,,] [ECB,A,E,A,,][ECB,A,E,A,,] [ECB,A,E,A,,][ECB,A,E,A,,] [ECB,A,E,A,,][ECB,A,E,A,,]| \
[E^CB,^F,B,,][ECB,F,B,,] [ECB,F,B,,][ECB,F,B,,] [ECB,F,B,,][ECB,F,B,,] [ECB,F,B,,][ECB,F,B,,]|
[^FDA,D,][FDA,D,] [FDA,D,][FDA,D,] [FDA,D,][FDA,D,] [FDA,D,][FDA,D,]| \
[^FDA,D,][FDA,D,] [FDA,D,][FDA,D,] [FDA,D,][FDA,D,] [FDA,D,][FDA,D,]| \
[E^CB,A,E,A,,][ECB,A,E,A,,] [ECB,A,E,A,,][ECB,A,E,A,,] [ECB,A,E,A,,][ECB,A,E,A,,] [ECB,A,E,A,,][ECB,A,E,A,,]| \
[E^CB,^F,B,,][ECB,F,B,,] [ECB,F,B,,][ECB,F,B,,] [ECB,F,B,,][ECB,F,B,,] [ECB,F,B,,][ECB,F,B,,]|
[^FDA,D,][FDA,D,] [FDA,D,][FDA,D,] [FDA,D,][FDA,D,] 
---------------